X:1
T:The Broken Heart
T:The Broken Heart
T:Thomas Dennis
T:Thomas Dennis, 1907
T:Public Domain Courtesy of the Cyber Hymnal™
C:Thomas Dennis
Z:Public Domain
Z:Courtesy of the Cyber Hymnal™
%%score ( 1 2 ) ( 3 4 )
L:1/8
Q:1/4=150
M:3/4
K:Ab
V:1 treble 
V:2 treble 
V:3 bass 
V:4 bass 
V:1
 [CE][CA] | [Ec]4 [Ec]2 | ([EA]2 [EB]2) [Ec]2 | [Fd]4 [Ec]2 | [CA]4 [Ec]2 | [Ec]4 [EB]2 | %6
w: 1.~Have you|read the|sto- * ry|of the|cross, Where|Je- sus|
w: 2.~Have you|read how|they~placed * the|crown of|thorns Up-|on His|
w: 3.~Have you|read how~the|dy- * ing|thief was|saved While|hang- ing|
w: 4.~Have you|read how~in|anguish * He|cried a-|loud And|died on|
 [EA]4 [DG]2 | !fermata![CA]4 [DF][FA] | [Fd]4 [Fd]2 | [Fd]2 [Ec]2 [EB]2 | [Ec]4 [Ec]2 | %11
w: bled and|died, Where your|debt was|paid by the|pre- cious|
w: king- ly|brow, How He|cried, “They|kn- ow not|what they|
w: on the|tree, When he|looked with|ple- ad- ing|eyes and|
w: Cal- va-|ry? Have you|ev- er|sa- id, “I|thank Thee,|
 [DB]4 [CA]2 | [FB]2 [Fc]2 [Fd]2 | [Ec]4 [DB]2 | !fermata![CA]4 ||"^Refrain" [CE]2 | %16
w: blood That|flowed from His|wound- ed|side?||
w: do; O|Fa- ther, for-|give them|now”?||
w: said, “O|Lo- rd, re-|mem- ber|me”?|He|
w: Lord, For|giv- ing Thy|life for|me”?||
 [DB]3 [DB] [DB]2 | ([Fd]2 [Ec]2) [EB]2 | [EA]4 [EB]2 | [Ec]4 [Ec]2 | [Ae]3 [Ed] [Ec]2 | %21
w: |||||
w: |||||
w: died of a|brok- * en|heart for|you, He|died of a|
w: |||||
 (c2 B2) [=DA]2 | !fermata![EB]4 [CE]2 | [Ec]4 [Ec]2 | (e2 d2) [Ec]2 | [DB]4 [Fc]2 | %26
w: |||||
w: |||||
w: brok- * en|heart; Oh,|won- drous|love! * for|you, for|
w: |||||
 (d2 c2) [FB]2 | [EA]3 [EG] [EA]2 | [Ec]4 [DB]2 | !fermata![CA]4 |] %30
w: ||||
w: ||||
w: me, * He|died of a|brok- en|heart.|
w: ||||
V:2
 x2 | x6 | x6 | x6 | x6 | x6 | x6 | x6 | x6 | x6 | x6 | x6 | x6 | x6 | x4 || x2 | x6 | x6 | x6 | %19
 x6 | x6 | E4 x2 | x6 | x6 | E4 x2 | x6 | F4 x2 | x6 | x6 | x4 |] %30
V:3
 [A,,A,][A,,A,] | [A,,A,]4 [A,,A,]2 | ([C,A,]2 [B,,G,]2) [A,,A,]2 | [D,A,]4 [A,,A,]2 | %4
 [A,,E,]4 [A,,A,]2 | [A,,A,]4 [D,A,]2 | [E,C]4 [E,B,]2 | !fermata![A,,A,]4 [D,A,][D,A,] | %8
 [D,A,]4 [F,A,]2 | A,4 [E,G,]2 | [A,,A,]4 [C,A,]2 | [E,G,]4 F,2 | [D,B,]2 [C,=A,]2 [B,,B,]2 | %13
 (C2 B,2) [E,G,]2 | !fermata![A,,A,]4 || [A,,A,]2 | [E,G,]3 [E,G,] [E,G,]2 | [E,G,]4 [D,G,]2 | %18
 [C,A,]4 [E,G,]2 | A,4 A,2 | [A,C]3 [G,B,] A,2 | A,2 [G,B,]2 [F,B,]2 | !fermata![E,G,]4 [A,,A,]2 | %23
 [A,,A,]4 [A,,A,]2 | [C,A,]2 [B,,G,]2 [A,,A,]2 | [D,F,]4 [C,=A,]2 | ([B,,B,]2 [C,=A,]2) [D,B,]2 | %27
 [E,C]3 [E,B,] [E,C]2 | A,2 F,2 [E,G,]2 | !fermata![A,,A,]4 |] %30
V:4
 x2 | x6 | x6 | x6 | x6 | x6 | x6 | x6 | x6 | A,4 x2 | x6 | x4 F,2 | x6 | E,4 x2 | x4 || x2 | x6 | %17
 x6 | x6 | x6 | x6 | x6 | x6 | x6 | x6 | x6 | x6 | x6 | E,4 x2 | x4 |] %30

